svgs/solid/gauge-max.svg

<svg xmlns="http://www.w3.org/2000/svg" viewBox="0 0 576 512"><!-- Font Awesome Pro 6.0.0-alpha2 by @fontawesome - https://fontawesome.com License - https://fontawesome.com/license (Commercial License) --><path d="M288 32C129 32 0 161 0 320C0 372.75 14.25 422.25 39 464.75C44.625 474.375 55.375 480 66.5 480H509.5C520.625 480 531.375 474.375 537 464.75C561.75 422.25 576 372.75 576 320C576 161 447 32 288 32ZM432 160C449.625 160 464 174.375 464 192S449.625 224 432 224S400 209.625 400 192S414.375 160 432 160ZM288 96C305.625 96 320 110.375 320 128S305.625 160 288 160S256 145.625 256 128S270.375 96 288 96ZM96 384C78.375 384 64 369.625 64 352S78.375 320 96 320S128 334.375 128 352S113.625 384 96 384ZM144 224C126.375 224 112 209.625 112 192S126.375 160 144 160S176 174.375 176 192S161.625 224 144 224ZM484 375.625L349.999 398C348.5 404.375 346.375 410.5 343.125 416H232.875C227.375 406.5 224 395.75 224 384C224 348.625 252.625 320 288 320C311 320 331.125 332.25 342.375 350.625L476 328.375C489.125 326.125 501.5 335 503.625 348C505.875 361.125 497 373.5 484 375.625Z"/></svg>

<svg xmlns="http://www.w3.org/2000/svg" viewBox="0 0 576 512"><!--! Font Awesome Pro 6.0.0-alpha3 by @fontawesome - https://fontawesome.com License - https://fontawesome.com/license (Commercial License) --><path d="M288 32c-159 0-288 129-288 288c0 52.75 14.25 102.3 39 144.8c5.625 9.625 16.38 15.25 27.5 15.25h443c11.12 0 21.88-5.625 27.5-15.25C561.8 422.3 576 372.8 576 320C576 161 447 32 288 32zM432 160c17.62 0 32 14.38 32 32s-14.38 32-32 32s-32-14.38-32-32S414.4 160 432 160zM288 96c17.62 0 32 14.38 32 32s-14.38 32-32 32s-32-14.38-32-32S270.4 96 288 96zM96 384c-17.62 0-32-14.38-32-32s14.38-32 32-32s32 14.38 32 32S113.6 384 96 384zM144 224c-17.62 0-32-14.38-32-32s14.38-32 32-32s32 14.38 32 32S161.6 224 144 224zM484 375.6l-134 22.38c-1.499 6.375-3.624 12.5-6.874 17.1H232.9C227.4 406.5 224 395.8 224 384c0-35.38 28.62-64 64-64c23 0 43.13 12.25 54.38 30.63L476 328.4c13.12-2.25 25.5 6.625 27.62 19.62C505.9 361.1 497 373.5 484 375.6z"/></svg>
